img/logo_ATD.svg

<svg xmlns="http://www.w3.org/2000/svg" width="380" height="231" style="shape-rendering:geometricPrecision;text-rendering:geometricPrecision;image-rendering:optimizeQuality;fill-rule:evenodd;clip-rule:evenodd"><path style="opacity:1" fill="#002038" d="M-.5-.5h380v231H-.5V-.5Z"/><path style="opacity:1" fill="#83939e" d="M40.5 153.5a3306.79 3306.79 0 0 1-1-115h299v116c-99.501.333-198.835-.001-298-1Z"/><path style="opacity:1" fill="#fdfefe" d="M40.5 153.5v-114h297v114h-297Z"/><path style="opacity:1" fill="#55588d" d="M274.5 72.5a841.021 841.021 0 0 0-55-1v59a900.975 900.975 0 0 1-1-60c17.337-.167 34.67 0 52 .5 1.558.21 2.891.71 4 1.5Z"/><path style="opacity:1" fill="#25246a" d="M112.5 70.5c2.792-.048 4.625 1.285 5.5 4a1473.26 1473.26 0 0 0 25 45c2.364 3.719 3.864 7.719 4.5 12-1.89.203-3.39-.463-4.5-2a401.382 401.382 0 0 0-9.5-16.5c-13-.667-26-.667-39 0a401.729 401.729 0 0 0-9.5 16.5c-1.11 1.537-2.61 2.203-4.5 2-.04-2.925.793-5.591 2.5-8a1026.58 1026.58 0 0 0 29.5-53Z"/><path style="opacity:1" fill="#1a1a63" d="M208.5 73.5h-33v55c-.12 1.086-.787 1.753-2 2-1.213-.247-1.88-.914-2-2v-55h-33v-3h70v3Z"/><path style="opacity:1" fill="#242369" d="M274.5 72.5c8.974 1.469 15.141 6.469 18.5 15 2.663 11.081 1.663 21.748-3 32-5.229 5.866-11.729 9.532-19.5 11-17.162 1.327-34.162 1.327-51 0v-59c18.357-.266 36.69.067 55 1Z"/><path style="opacity:1" fill="#8385ac" d="M223.5 74.5c16.531-1.397 33.197-1.23 50 .5 1.82.2 3.153 1.034 4 2.5a38.496 38.496 0 0 0-13-2 420.86 420.86 0 0 0-41-1Z"/><path style="opacity:1" fill="#b7b8ce" d="M138.5 73.5h33v55a729.545 729.545 0 0 1-1-54c-10.846.328-21.513-.006-32-1Z"/><path style="opacity:1" fill="#8689ae" d="M208.5 73.5c-10.487.994-21.154 1.328-32 1a729.545 729.545 0 0 1-1 54v-55h33Z"/><path style="opacity:1" fill="#dbdce7" d="M223.5 74.5a420.86 420.86 0 0 1 41 1h-40v51h45a529.493 529.493 0 0 1-46 1v-53Z"/><path style="opacity:1" fill="#fefefe" d="M264.5 75.5c4.462-.077 8.795.59 13 2 4.234 1.231 7.234 3.898 9 8 2.252 9.221 2.586 18.554 1 28-1.25 4.517-3.917 7.85-8 10-1.903.296-3.57.963-5 2-1.792-.134-3.458.199-5 1h-45v-51h40Z"/><path style="opacity:1" fill="#f5f5f8" d="M130.5 107.5c-11 1.333-22 1.333-33 0a262.7 262.7 0 0 1 16.5-30 218.71 218.71 0 0 1 16.5 30Z"/><path style="opacity:1" fill="#d2d3e1" d="M286.5 85.5c1.293 1.342 2.126 3.009 2.5 5a100.2 100.2 0 0 1 0 20c-.232 1.237-.732 2.237-1.5 3 1.586-9.446 1.252-18.779-1-28Z"/><path style="opacity:1" fill="#acaec8" d="M97.5 107.5c11 1.333 22 1.333 33 0 .543.06.876.393 1 1a153.663 153.663 0 0 1-35 0c.124-.607.457-.94 1-1Z"/><path style="opacity:1" fill="#70719f" d="M279.5 123.5c-1.135 1.713-2.802 2.38-5 2 1.43-1.037 3.097-1.704 5-2Z"/><path style="opacity:1" fill="#bcc5cb" d="M147.5 174.5a21.127 21.127 0 0 1 9 1c-.825.886-1.825 1.219-3 1v14h-3v-14c-1.679.215-2.679-.452-3-2Z"/><path style="opacity:1" fill="#dfe3e6" d="M176.5 174.5c1.676.683 2.343 2.017 2 4 1.967-.239 3.801.094 5.5 1 .825 3.711.659 7.378-.5 11a25.879 25.879 0 0 1-1-10h-4a25.879 25.879 0 0 1-1 10 64.873 64.873 0 0 1-1-16Z"/><path style="opacity:1" fill="#e8ebee" d="M209.5 174.5c1.312 2.243 1.978 4.91 2 8l-1 8a64.873 64.873 0 0 1-1-16Z"/><path style="opacity:1" fill="#cfd5d9" d="M285.5 173.5c3.81 1.254 3.81 2.254 0 3v-3Z"/><path style="opacity:1" fill="#c9d0d5" d="M252.5 174.5c7.314-2.006 10.647.66 10 8 .647 7.34-2.686 10.006-10 8v-16Z"/><path style="opacity:1" fill="#03233b" d="M255.5 176.5h4v12h-4v-12Z"/><path style="opacity:1" fill="#bfc7cd" d="M102.5 178.5c2.619-.268 5.119.065 7.5 1 .825 3.711.659 7.378-.5 11a25.879 25.879 0 0 1-1-10h-3v10h-3v-12Z"/><path style="opacity:1" fill="#e8ebed" d="M285.5 178.5c1.294 1.548 1.961 3.548 2 6l-1 6a36.875 36.875 0 0 1-1-12Z"/><path style="opacity:1" fill="#ced4d9" d="M81.5 178.5c.876-.131 1.543.202 2 1 1.333 8 2.667 8 4 0 .86-1.274 1.526-1.108 2 .5a116.175 116.175 0 0 0-2 10.5h-4l-2-12Z"/><path style="opacity:1" fill="#e5e8eb" d="M92.5 178.5c2.293-.256 4.46.077 6.5 1a60.94 60.94 0 0 1 .5 11c-2.62.268-5.12-.065-7.5-1-1.509-4.993.325-6.993 5.5-6v-3c-2.281.423-3.948-.244-5-2Z"/><path style="opacity:1" fill="#d3d9dd" d="M123.5 178.5c5.613-1.421 7.78.579 6.5 6a60.667 60.667 0 0 1-5.5 3l5 2c-2.195 1.269-4.361 1.269-6.5 0-.755-3.755-.589-7.422.5-11Z"/><path style="opacity:1" fill="#30475b" d="M124.5 180.5h4c.333 3-1 4.333-4 4v-4Z"/><path style="opacity:1" fill="#d4d9dd" d="M158.5 178.5c5.735-.679 7.402 1.655 5 7-5.102 1.662-4.768 2.996 1 4-2.195 1.269-4.361 1.269-6.5 0-.755-3.755-.589-7.422.5-11Z"/><path style="opacity:1" fill="#06253d" d="M159.5 180.5h3v3h-3v-3Z"/><path style="opacity:1" fill="#d4d9dd" d="M168.5 178.5c1.788-.285 3.455.048 5 1-1.189.929-2.522 1.262-4 1v8c1.788-.285 3.455.048 5 1-2.195 1.269-4.361 1.269-6.5 0-.755-3.755-.589-7.422.5-11Z"/><path style="opacity:1" fill="#dee2e5" d="M187.5 178.5c2.619-.268 5.119.065 7.5 1 .825 3.711.659 7.378-.5 11a25.879 25.879 0 0 1-1-10h-4a25.879 25.879 0 0 1-1 10 36.875 36.875 0 0 1-1-12Z"/><path style="opacity:1" fill="#d9dee1" d="M199.5 178.5c2.292-.256 4.459.077 6.5 1 .789 3.591.622 7.091-.5 10.5-2.269.758-4.436.591-6.5-.5-.755-3.755-.589-7.422.5-11Z"/><path style="opacity:1" fill="#05253c" d="M200.5 180.5h4v8h-4v-8Z"/><path style="opacity:1" fill="#d9dee1" d="M216.5 178.5c2.544-.396 4.711.271 6.5 2 1.004 3.493.504 6.659-1.5 9.5-1.941.743-3.774.576-5.5-.5-.755-3.755-.589-7.422.5-11Z"/><path style="opacity:1" fill="#1b344a" d="M217.5 180.5h4v8h-4v-8Z"/><path style="opacity:1" fill="#d3d9dd" d="M227.5 178.5h7a98.432 98.432 0 0 1-.5 14c-2.179 2.137-4.679 2.471-7.5 1 6.26-1.185 6.427-2.519.5-4-.755-3.755-.589-7.422.5-11Z"/><path style="opacity:1" fill="#04243b" d="M228.5 180.5h3v8h-3v-8Z"/><path style="opacity:1" fill="#d3d9dd" d="M266.5 178.5c5.613-1.421 7.78.579 6.5 6a60.667 60.667 0 0 1-5.5 3l5 2c-2.195 1.269-4.361 1.269-6.5 0-.755-3.755-.589-7.422.5-11Z"/><path style="opacity:1" fill="#30475b" d="M267.5 180.5h4c.333 3-1 4.333-4 4v-4Z"/><path style="opacity:1" fill="#d4dade" d="M274.5 178.5h3c1 12 2 12 3 0 1.175-.219 2.175.114 3 1-3.631 14.624-6.631 14.291-9-1Z"/><path style="opacity:1" fill="#d8dde1" d="M292.5 178.5c1.788-.285 3.455.048 5 1-1.189.929-2.522 1.262-4 1v8c1.478-.262 2.811.071 4 1-1.853 1.26-3.686 1.26-5.5 0-.755-3.755-.589-7.422.5-11Z"/><path style="opacity:1" fill="#cfd5d9" d="M311.5 178.5c1.788-.285 3.455.048 5 1-1.189.929-2.522 1.262-4 1v3c3.823-.333 5.323 1.334 4.5 5-2.218 2.119-4.718 2.452-7.5 1 1.545-.952 3.212-1.285 5-1v-3c-5.339-.323-6.339-2.657-3-7Z"/><path style="opacity:1" fill="#d5dade" d="M76.5 174.5c1.312 2.243 1.978 4.91 2 8l-.5 8c-2.046.049-4.213-.285-6.5-1-1.075-2.938-1.242-5.938-.5-9 1.444-1.655 3.278-2.322 5.5-2v-4Z"/><path style="opacity:1" fill="#02223a" d="M73.5 180.5h3v8h-3v-8Z"/><path style="opacity:1" fill="#d5dade" d="M138.5 174.5c1.312 2.243 1.978 4.91 2 8l-.5 8c-2.046.049-4.213-.285-6.5-1-1.075-2.938-1.241-5.938-.5-9 1.444-1.655 3.278-2.322 5.5-2v-4Z"/><path style="opacity:1" fill="#02223a" d="M135.5 180.5h3v8h-3v-8Z"/><path style="opacity:1" fill="#dadfe2" d="M61.5 174.5c1.951-.273 3.451.393 4.5 2a285.483 285.483 0 0 0 2.5 11.5l-1 2.5c-.929-1.189-1.262-2.522-1-4-3.658-.82-5.991.513-7 4l-1-2.5a390.196 390.196 0 0 0 3-13.5Z"/><path style="opacity:1" fill="#112d44" d="M62.5 179.5c1.585.974 2.585 2.474 3 4.5a4.934 4.934 0 0 1-3 .5v-5Z"/><path style="opacity:1" fill="#cbd2d7" d="M301.5 178.5c5.175-.993 7.009 1.007 5.5 6a14.748 14.748 0 0 1-4.5 3l5 2c-7.48 1.671-9.98-1.329-7.5-9 .717-.544 1.217-1.211 1.5-2Z"/><path style="opacity:1" fill="#03233b" d="M302.5 180.5h3v3h-3v-3Z"/><path style="opacity:1" fill="#142f46" d="M93.5 185.5h4v3h-4v-3Z"/><path style="opacity:1" fill="#d0d5da" d="M236.5 178.5c.996-.086 1.829.248 2.5 1 1.258 8.773 2.425 8.94 3.5.5.852-1.898 1.519-1.731 2 .5a325.633 325.633 0 0 1-2.5 11c-1.037 2.884-2.871 3.55-5.5 2l3-2a75.833 75.833 0 0 1-3-13Z"/><path style="opacity:1" fill="#c9cfd5" d="M114.5 178.5a9.86 9.86 0 0 1 6 1c-1.545.952-3.212 1.285-5 1v8c1.788-.285 3.455.048 5 1-2.195 1.269-4.361 1.269-6.5 0-.755-3.755-.589-7.422.5-11Z"/></svg>

<?xml version="1.0" encoding="UTF-8"?>
<!DOCTYPE svg PUBLIC "-//W3C//DTD SVG 1.1//EN" "http://www.w3.org/Graphics/SVG/1.1/DTD/svg11.dtd">
<svg xmlns="http://www.w3.org/2000/svg" version="1.1" width="380px" height="231px" style="shape-rendering:geometricPrecision; text-rendering:geometricPrecision; image-rendering:optimizeQuality; fill-rule:evenodd; clip-rule:evenodd" xmlns:xlink="http://www.w3.org/1999/xlink">
<g><path style="opacity:1" fill="#002038" d="M -0.5,-0.5 C 126.167,-0.5 252.833,-0.5 379.5,-0.5C 379.5,76.5 379.5,153.5 379.5,230.5C 252.833,230.5 126.167,230.5 -0.5,230.5C -0.5,153.5 -0.5,76.5 -0.5,-0.5 Z"/></g>
<g><path style="opacity:1" fill="#83939e" d="M 40.5,153.5 C 39.5015,115.337 39.1681,77.0036 39.5,38.5C 139.167,38.5 238.833,38.5 338.5,38.5C 338.5,77.1667 338.5,115.833 338.5,154.5C 238.999,154.833 139.665,154.499 40.5,153.5 Z"/></g>
<g><path style="opacity:1" fill="#fdfefe" d="M 40.5,153.5 C 40.5,115.5 40.5,77.5 40.5,39.5C 139.5,39.5 238.5,39.5 337.5,39.5C 337.5,77.5 337.5,115.5 337.5,153.5C 238.5,153.5 139.5,153.5 40.5,153.5 Z"/></g>
<g><path style="opacity:1" fill="#55588d" d="M 274.5,72.5 C 256.19,71.5672 237.857,71.2338 219.5,71.5C 219.5,91.1667 219.5,110.833 219.5,130.5C 218.503,110.674 218.17,90.6736 218.5,70.5C 235.837,70.3334 253.17,70.5001 270.5,71C 272.058,71.21 273.391,71.71 274.5,72.5 Z"/></g>
<g><path style="opacity:1" fill="#25246a" d="M 112.5,70.5 C 115.292,70.4521 117.125,71.7854 118,74.5C 126.08,89.6611 134.413,104.661 143,119.5C 145.364,123.219 146.864,127.219 147.5,131.5C 145.61,131.703 144.11,131.037 143,129.5C 139.96,123.918 136.793,118.418 133.5,113C 120.5,112.333 107.5,112.333 94.5,113C 91.207,118.418 88.0403,123.918 85,129.5C 83.8904,131.037 82.3904,131.703 80.5,131.5C 80.4598,128.575 81.2932,125.909 83,123.5C 93.3526,106.129 103.186,88.462 112.5,70.5 Z"/></g>
<g><path style="opacity:1" fill="#1a1a63" d="M 208.5,73.5 C 197.5,73.5 186.5,73.5 175.5,73.5C 175.5,91.8333 175.5,110.167 175.5,128.5C 175.38,129.586 174.713,130.253 173.5,130.5C 172.287,130.253 171.62,129.586 171.5,128.5C 171.5,110.167 171.5,91.8333 171.5,73.5C 160.5,73.5 149.5,73.5 138.5,73.5C 138.5,72.5 138.5,71.5 138.5,70.5C 161.833,70.5 185.167,70.5 208.5,70.5C 208.5,71.5 208.5,72.5 208.5,73.5 Z"/></g>
<g><path style="opacity:1" fill="#242369" d="M 274.5,72.5 C 283.474,73.9687 289.641,78.9687 293,87.5C 295.663,98.5812 294.663,109.248 290,119.5C 284.771,125.366 278.271,129.032 270.5,130.5C 253.338,131.827 236.338,131.827 219.5,130.5C 219.5,110.833 219.5,91.1667 219.5,71.5C 237.857,71.2338 256.19,71.5672 274.5,72.5 Z"/></g>
<g><path style="opacity:1" fill="#8385ac" d="M 223.5,74.5 C 240.031,73.1033 256.697,73.27 273.5,75C 275.32,75.2004 276.653,76.0337 277.5,77.5C 273.295,76.0897 268.962,75.423 264.5,75.5C 251.01,74.5043 237.344,74.171 223.5,74.5 Z"/></g>
<g><path style="opacity:1" fill="#b7b8ce" d="M 138.5,73.5 C 149.5,73.5 160.5,73.5 171.5,73.5C 171.5,91.8333 171.5,110.167 171.5,128.5C 170.503,110.674 170.17,92.6744 170.5,74.5C 159.654,74.8278 148.987,74.4944 138.5,73.5 Z"/></g>
<g><path style="opacity:1" fill="#8689ae" d="M 208.5,73.5 C 198.013,74.4944 187.346,74.8278 176.5,74.5C 176.83,92.6744 176.497,110.674 175.5,128.5C 175.5,110.167 175.5,91.8333 175.5,73.5C 186.5,73.5 197.5,73.5 208.5,73.5 Z"/></g>
<g><path style="opacity:1" fill="#dbdce7" d="M 223.5,74.5 C 237.344,74.171 251.01,74.5043 264.5,75.5C 251.167,75.5 237.833,75.5 224.5,75.5C 224.5,92.5 224.5,109.5 224.5,126.5C 239.5,126.5 254.5,126.5 269.5,126.5C 254.342,127.496 239.009,127.83 223.5,127.5C 223.5,109.833 223.5,92.1667 223.5,74.5 Z"/></g>
<g><path style="opacity:1" fill="#fefefe" d="M 264.5,75.5 C 268.962,75.423 273.295,76.0897 277.5,77.5C 281.734,78.7314 284.734,81.3981 286.5,85.5C 288.752,94.721 289.086,104.054 287.5,113.5C 286.25,118.017 283.583,121.35 279.5,123.5C 277.597,123.796 275.93,124.463 274.5,125.5C 272.708,125.366 271.042,125.699 269.5,126.5C 254.5,126.5 239.5,126.5 224.5,126.5C 224.5,109.5 224.5,92.5 224.5,75.5C 237.833,75.5 251.167,75.5 264.5,75.5 Z"/></g>
<g><path style="opacity:1" fill="#f5f5f8" d="M 130.5,107.5 C 119.5,108.833 108.5,108.833 97.5,107.5C 102.341,97.1533 107.841,87.1533 114,77.5C 120.286,87.0726 125.786,97.0726 130.5,107.5 Z"/></g>
<g><path style="opacity:1" fill="#d2d3e1" d="M 286.5,85.5 C 287.793,86.842 288.626,88.5087 289,90.5C 289.667,97.1667 289.667,103.833 289,110.5C 288.768,111.737 288.268,112.737 287.5,113.5C 289.086,104.054 288.752,94.721 286.5,85.5 Z"/></g>
<g><path style="opacity:1" fill="#acaec8" d="M 97.5,107.5 C 108.5,108.833 119.5,108.833 130.5,107.5C 131.043,107.56 131.376,107.893 131.5,108.5C 119.833,109.833 108.167,109.833 96.5,108.5C 96.6236,107.893 96.9569,107.56 97.5,107.5 Z"/></g>
<g><path style="opacity:1" fill="#70719f" d="M 279.5,123.5 C 278.365,125.213 276.698,125.88 274.5,125.5C 275.93,124.463 277.597,123.796 279.5,123.5 Z"/></g>
<g><path style="opacity:1" fill="#bcc5cb" d="M 147.5,174.5 C 150.572,174.183 153.572,174.516 156.5,175.5C 155.675,176.386 154.675,176.719 153.5,176.5C 153.5,181.167 153.5,185.833 153.5,190.5C 152.5,190.5 151.5,190.5 150.5,190.5C 150.5,185.833 150.5,181.167 150.5,176.5C 148.821,176.715 147.821,176.048 147.5,174.5 Z"/></g>
<g><path style="opacity:1" fill="#dfe3e6" d="M 176.5,174.5 C 178.176,175.183 178.843,176.517 178.5,178.5C 180.467,178.261 182.301,178.594 184,179.5C 184.825,183.211 184.659,186.878 183.5,190.5C 182.513,187.232 182.18,183.898 182.5,180.5C 181.167,180.5 179.833,180.5 178.5,180.5C 178.82,183.898 178.487,187.232 177.5,190.5C 176.505,185.208 176.172,179.875 176.5,174.5 Z"/></g>
<g><path style="opacity:1" fill="#e8ebee" d="M 209.5,174.5 C 210.812,176.743 211.478,179.41 211.5,182.5C 211.167,185.167 210.833,187.833 210.5,190.5C 209.505,185.208 209.172,179.875 209.5,174.5 Z"/></g>
<g><path style="opacity:1" fill="#cfd5d9" d="M 285.5,173.5 C 289.31,174.754 289.31,175.754 285.5,176.5C 285.5,175.5 285.5,174.5 285.5,173.5 Z"/></g>
<g><path style="opacity:1" fill="#c9d0d5" d="M 252.5,174.5 C 259.814,172.494 263.147,175.16 262.5,182.5C 263.147,189.84 259.814,192.506 252.5,190.5C 252.5,185.167 252.5,179.833 252.5,174.5 Z"/></g>
<g><path style="opacity:1" fill="#03233b" d="M 255.5,176.5 C 256.833,176.5 258.167,176.5 259.5,176.5C 259.5,180.5 259.5,184.5 259.5,188.5C 258.167,188.5 256.833,188.5 255.5,188.5C 255.5,184.5 255.5,180.5 255.5,176.5 Z"/></g>
<g><path style="opacity:1" fill="#bfc7cd" d="M 102.5,178.5 C 105.119,178.232 107.619,178.565 110,179.5C 110.825,183.211 110.659,186.878 109.5,190.5C 108.513,187.232 108.18,183.898 108.5,180.5C 107.5,180.5 106.5,180.5 105.5,180.5C 105.5,183.833 105.5,187.167 105.5,190.5C 104.5,190.5 103.5,190.5 102.5,190.5C 102.5,186.5 102.5,182.5 102.5,178.5 Z"/></g>
<g><path style="opacity:1" fill="#e8ebed" d="M 285.5,178.5 C 286.794,180.048 287.461,182.048 287.5,184.5C 287.167,186.5 286.833,188.5 286.5,190.5C 285.509,186.555 285.176,182.555 285.5,178.5 Z"/></g>
<g><path style="opacity:1" fill="#ced4d9" d="M 81.5,178.5 C 82.3764,178.369 83.0431,178.702 83.5,179.5C 84.8333,187.5 86.1667,187.5 87.5,179.5C 88.3594,178.226 89.0261,178.392 89.5,180C 88.6706,183.478 88.0039,186.978 87.5,190.5C 86.1667,190.5 84.8333,190.5 83.5,190.5C 82.8333,186.5 82.1667,182.5 81.5,178.5 Z"/></g>
<g><path style="opacity:1" fill="#e5e8eb" d="M 92.5,178.5 C 94.7925,178.244 96.9592,178.577 99,179.5C 99.4986,183.152 99.6653,186.818 99.5,190.5C 96.8806,190.768 94.3806,190.435 92,189.5C 90.4914,184.507 92.3248,182.507 97.5,183.5C 97.5,182.5 97.5,181.5 97.5,180.5C 95.2188,180.923 93.5521,180.256 92.5,178.5 Z"/></g>
<g><path style="opacity:1" fill="#d3d9dd" d="M 123.5,178.5 C 129.113,177.079 131.28,179.079 130,184.5C 128.22,185.594 126.386,186.594 124.5,187.5C 126.167,188.167 127.833,188.833 129.5,189.5C 127.305,190.769 125.139,190.769 123,189.5C 122.245,185.745 122.411,182.078 123.5,178.5 Z"/></g>
<g><path style="opacity:1" fill="#30475b" d="M 124.5,180.5 C 125.833,180.5 127.167,180.5 128.5,180.5C 128.833,183.5 127.5,184.833 124.5,184.5C 124.5,183.167 124.5,181.833 124.5,180.5 Z"/></g>
<g><path style="opacity:1" fill="#d4d9dd" d="M 158.5,178.5 C 164.235,177.821 165.902,180.155 163.5,185.5C 158.398,187.162 158.732,188.496 164.5,189.5C 162.305,190.769 160.139,190.769 158,189.5C 157.245,185.745 157.411,182.078 158.5,178.5 Z"/></g>
<g><path style="opacity:1" fill="#06253d" d="M 159.5,180.5 C 160.5,180.5 161.5,180.5 162.5,180.5C 162.5,181.5 162.5,182.5 162.5,183.5C 161.5,183.5 160.5,183.5 159.5,183.5C 159.5,182.5 159.5,181.5 159.5,180.5 Z"/></g>
<g><path style="opacity:1" fill="#d4d9dd" d="M 168.5,178.5 C 170.288,178.215 171.955,178.548 173.5,179.5C 172.311,180.429 170.978,180.762 169.5,180.5C 169.5,183.167 169.5,185.833 169.5,188.5C 171.288,188.215 172.955,188.548 174.5,189.5C 172.305,190.769 170.139,190.769 168,189.5C 167.245,185.745 167.411,182.078 168.5,178.5 Z"/></g>
<g><path style="opacity:1" fill="#dee2e5" d="M 187.5,178.5 C 190.119,178.232 192.619,178.565 195,179.5C 195.825,183.211 195.659,186.878 194.5,190.5C 193.513,187.232 193.18,183.898 193.5,180.5C 192.167,180.5 190.833,180.5 189.5,180.5C 189.82,183.898 189.487,187.232 188.5,190.5C 187.509,186.555 187.176,182.555 187.5,178.5 Z"/></g>
<g><path style="opacity:1" fill="#d9dee1" d="M 199.5,178.5 C 201.792,178.244 203.959,178.577 206,179.5C 206.789,183.091 206.622,186.591 205.5,190C 203.231,190.758 201.064,190.591 199,189.5C 198.245,185.745 198.411,182.078 199.5,178.5 Z"/></g>
<g><path style="opacity:1" fill="#05253c" d="M 200.5,180.5 C 201.833,180.5 203.167,180.5 204.5,180.5C 204.5,183.167 204.5,185.833 204.5,188.5C 203.167,188.5 201.833,188.5 200.5,188.5C 200.5,185.833 200.5,183.167 200.5,180.5 Z"/></g>
<g><path style="opacity:1" fill="#d9dee1" d="M 216.5,178.5 C 219.044,178.104 221.211,178.771 223,180.5C 224.004,183.993 223.504,187.159 221.5,190C 219.559,190.743 217.726,190.576 216,189.5C 215.245,185.745 215.411,182.078 216.5,178.5 Z"/></g>
<g><path style="opacity:1" fill="#1b344a" d="M 217.5,180.5 C 218.833,180.5 220.167,180.5 221.5,180.5C 221.5,183.167 221.5,185.833 221.5,188.5C 220.167,188.5 218.833,188.5 217.5,188.5C 217.5,185.833 217.5,183.167 217.5,180.5 Z"/></g>
<g><path style="opacity:1" fill="#d3d9dd" d="M 227.5,178.5 C 229.833,178.5 232.167,178.5 234.5,178.5C 234.666,183.179 234.499,187.845 234,192.5C 231.821,194.637 229.321,194.971 226.5,193.5C 232.76,192.315 232.927,190.981 227,189.5C 226.245,185.745 226.411,182.078 227.5,178.5 Z"/></g>
<g><path style="opacity:1" fill="#04243b" d="M 228.5,180.5 C 229.5,180.5 230.5,180.5 231.5,180.5C 231.5,183.167 231.5,185.833 231.5,188.5C 230.5,188.5 229.5,188.5 228.5,188.5C 228.5,185.833 228.5,183.167 228.5,180.5 Z"/></g>
<g><path style="opacity:1" fill="#d3d9dd" d="M 266.5,178.5 C 272.113,177.079 274.28,179.079 273,184.5C 271.22,185.594 269.386,186.594 267.5,187.5C 269.167,188.167 270.833,188.833 272.5,189.5C 270.305,190.769 268.139,190.769 266,189.5C 265.245,185.745 265.411,182.078 266.5,178.5 Z"/></g>
<g><path style="opacity:1" fill="#30475b" d="M 267.5,180.5 C 268.833,180.5 270.167,180.5 271.5,180.5C 271.833,183.5 270.5,184.833 267.5,184.5C 267.5,183.167 267.5,181.833 267.5,180.5 Z"/></g>
<g><path style="opacity:1" fill="#d4dade" d="M 274.5,178.5 C 275.5,178.5 276.5,178.5 277.5,178.5C 278.5,190.5 279.5,190.5 280.5,178.5C 281.675,178.281 282.675,178.614 283.5,179.5C 279.869,194.124 276.869,193.791 274.5,178.5 Z"/></g>
<g><path style="opacity:1" fill="#d8dde1" d="M 292.5,178.5 C 294.288,178.215 295.955,178.548 297.5,179.5C 296.311,180.429 294.978,180.762 293.5,180.5C 293.5,183.167 293.5,185.833 293.5,188.5C 294.978,188.238 296.311,188.571 297.5,189.5C 295.647,190.76 293.814,190.76 292,189.5C 291.245,185.745 291.411,182.078 292.5,178.5 Z"/></g>
<g><path style="opacity:1" fill="#cfd5d9" d="M 311.5,178.5 C 313.288,178.215 314.955,178.548 316.5,179.5C 315.311,180.429 313.978,180.762 312.5,180.5C 312.5,181.5 312.5,182.5 312.5,183.5C 316.323,183.167 317.823,184.834 317,188.5C 314.782,190.619 312.282,190.952 309.5,189.5C 311.045,188.548 312.712,188.215 314.5,188.5C 314.5,187.5 314.5,186.5 314.5,185.5C 309.161,185.177 308.161,182.843 311.5,178.5 Z"/></g>
<g><path style="opacity:1" fill="#d5dade" d="M 76.5,174.5 C 77.8117,176.743 78.4783,179.41 78.5,182.5C 78.3333,185.167 78.1667,187.833 78,190.5C 75.9538,190.549 73.7871,190.215 71.5,189.5C 70.4252,186.562 70.2585,183.562 71,180.5C 72.4443,178.845 74.2776,178.178 76.5,178.5C 76.5,177.167 76.5,175.833 76.5,174.5 Z"/></g>
<g><path style="opacity:1" fill="#02223a" d="M 73.5,180.5 C 74.5,180.5 75.5,180.5 76.5,180.5C 76.5,183.167 76.5,185.833 76.5,188.5C 75.5,188.5 74.5,188.5 73.5,188.5C 73.5,185.833 73.5,183.167 73.5,180.5 Z"/></g>
<g><path style="opacity:1" fill="#d5dade" d="M 138.5,174.5 C 139.812,176.743 140.478,179.41 140.5,182.5C 140.333,185.167 140.167,187.833 140,190.5C 137.954,190.549 135.787,190.215 133.5,189.5C 132.425,186.562 132.259,183.562 133,180.5C 134.444,178.845 136.278,178.178 138.5,178.5C 138.5,177.167 138.5,175.833 138.5,174.5 Z"/></g>
<g><path style="opacity:1" fill="#02223a" d="M 135.5,180.5 C 136.5,180.5 137.5,180.5 138.5,180.5C 138.5,183.167 138.5,185.833 138.5,188.5C 137.5,188.5 136.5,188.5 135.5,188.5C 135.5,185.833 135.5,183.167 135.5,180.5 Z"/></g>
<g><path style="opacity:1" fill="#dadfe2" d="M 61.5,174.5 C 63.451,174.227 64.951,174.893 66,176.5C 66.7544,180.351 67.5877,184.184 68.5,188C 68.1667,188.833 67.8333,189.667 67.5,190.5C 66.5713,189.311 66.238,187.978 66.5,186.5C 62.8422,185.68 60.5088,187.013 59.5,190.5C 59.1667,189.667 58.8333,188.833 58.5,188C 59.5828,183.504 60.5828,179.004 61.5,174.5 Z"/></g>
<g><path style="opacity:1" fill="#112d44" d="M 62.5,179.5 C 64.0853,180.474 65.0853,181.974 65.5,184C 64.552,184.483 63.552,184.649 62.5,184.5C 62.5,182.833 62.5,181.167 62.5,179.5 Z"/></g>
<g><path style="opacity:1" fill="#cbd2d7" d="M 301.5,178.5 C 306.675,177.507 308.509,179.507 307,184.5C 305.693,185.772 304.193,186.772 302.5,187.5C 304.167,188.167 305.833,188.833 307.5,189.5C 300.02,191.171 297.52,188.171 300,180.5C 300.717,179.956 301.217,179.289 301.5,178.5 Z"/></g>
<g><path style="opacity:1" fill="#03233b" d="M 302.5,180.5 C 303.5,180.5 304.5,180.5 305.5,180.5C 305.5,181.5 305.5,182.5 305.5,183.5C 304.5,183.5 303.5,183.5 302.5,183.5C 302.5,182.5 302.5,181.5 302.5,180.5 Z"/></g>
<g><path style="opacity:1" fill="#142f46" d="M 93.5,185.5 C 94.8333,185.5 96.1667,185.5 97.5,185.5C 97.5,186.5 97.5,187.5 97.5,188.5C 96.1667,188.5 94.8333,188.5 93.5,188.5C 93.5,187.5 93.5,186.5 93.5,185.5 Z"/></g>
<g><path style="opacity:1" fill="#d0d5da" d="M 236.5,178.5 C 237.496,178.414 238.329,178.748 239,179.5C 240.258,188.273 241.425,188.44 242.5,180C 243.352,178.102 244.019,178.269 244.5,180.5C 243.73,184.181 242.897,187.848 242,191.5C 240.963,194.384 239.129,195.05 236.5,193.5C 237.5,192.833 238.5,192.167 239.5,191.5C 238.117,187.25 237.117,182.917 236.5,178.5 Z"/></g>
<g><path style="opacity:1" fill="#c9cfd5" d="M 114.5,178.5 C 116.604,178.201 118.604,178.534 120.5,179.5C 118.955,180.452 117.288,180.785 115.5,180.5C 115.5,183.167 115.5,185.833 115.5,188.5C 117.288,188.215 118.955,188.548 120.5,189.5C 118.305,190.769 116.139,190.769 114,189.5C 113.245,185.745 113.411,182.078 114.5,178.5 Z"/></g>
</svg>
